symbolic/64x64/apps/com.dhsdevelopments.Climaxima.svg

<svg xmlns="http://www.w3.org/2000/svg" width="64" height="64" version="1.1">
 <rect style="opacity:0.2" width="56" height="56" x="4" y="5" rx="2.8" ry="2.8"/>
 <path style="fill:#005bb7" d="M 9.8883228,7.5458522 33.66,4 H 57.2 C 58.7512,4 60,5.2488 60,6.8 v 23.684 l -4.117764,23.856442 c -0.263844,1.528596 -1.259984,2.614066 -2.8,2.8 L 30.598,60 H 6.8 C 5.2488,60 4,58.7512 4,57.2 V 33.46 L 7.0883228,10.345852 c 0.205433,-1.5375364 1.2644526,-2.5801924 2.8,-2.7999998 z"/>
 <path style="opacity:0.1;fill:#ffffff" d="M 6.8007812 4 C 5.2495812 4 4 5.2495812 4 6.8007812 L 4 7.8007812 C 4 6.2495813 5.2495812 5 6.8007812 5 L 57.199219 5 C 58.750419 5 60 6.2495812 60 7.8007812 L 60 6.8007812 C 60 5.2495813 58.750419 4 57.199219 4 L 6.8007812 4 z"/>
 <path style="fill:#0a84ff" d="M 6.8,4 C 5.2488,4 4,5.2488 4,6.8 v 50.4 c 0,0.148 0.021838,0.29036 0.04375,0.432032 V 34.122 c 8.748775,0.0409 18.318902,-1.405508 22.641672,3.207514 C 31.35916,42.31707 29.9216,50.962712 30,60 H 57.2 C 58.7512,60 60,58.7512 60,57.2 V 30.070578 C 50.962712,29.992184 42.31707,31.35916 37.329514,26.685422 32.716492,22.362652 34.040904,12.792525 34,4.04375 H 57.632032 C 57.49036,4.0218366 57.347998,4 57.2,4 Z M 60,30.070578 V 6.8 C 60,6.7400026 59.984542,6.684038 59.98086,6.625 59.925742,10.123101 59.869304,27.65913 60,30.070578 Z M 30,60 C 27.588552,59.869304 10.123101,59.925742 6.625,59.98086 6.684038,59.984542 6.7400026,60 6.8,60 Z"/>
 <g transform="matrix(0.05116918,0,0,0.05136856,-32.112452,49.68151)">
  <path style="opacity:0.2" d="M 1331.1226,142.47021 V 80.922336 L 1461.6579,-74.225586 1331.1226,-228.56362 v -57.24372 h 351.7742 v 136.27015 h -58.0441 l -1.1697,-77.86864 h -211.3817 l 131.4043,153.611458 -131.4043,157.86311 h 212.2253 l -0.5175,-77.8686421 h 57.0281 V 142.47021 Z"/>
 </g>
 <g transform="matrix(0.05116918,0,0,0.05136856,-32.112452,48.68151)">
  <path style="fill:#ffffff" d="M 1331.1226,142.47021 V 80.922336 L 1461.6579,-74.225586 1331.1226,-228.56362 v -57.24372 h 351.7742 v 136.27015 h -58.0441 l -1.1697,-77.86864 h -211.3817 l 131.4043,153.611458 -131.4043,157.86311 h 212.2253 l -0.5175,-77.8686421 h 57.0281 V 142.47021 Z"/>
 </g>
 <path style="opacity:0.2" d="M 13.914062 33.9375 C 10.722297 33.9425 7.3237594 34.136434 4.0429688 34.121094 L 4.0429688 35.121094 C 7.3237594 35.136434 10.722297 34.9425 13.914062 34.9375 C 19.233674 34.929174 23.981862 35.444975 26.683594 38.328125 C 29.448277 41.278445 30.066352 45.523434 30.130859 50.361328 C 30.134334 45.112928 29.635746 40.478502 26.683594 37.328125 C 23.981862 34.444975 19.233674 33.929174 13.914062 33.9375 z"/>
 <path style="opacity:0.2;fill:#ffffff" d="M 6.8007812,4 C 5.2495812,4 4,5.2495812 4,6.8007812 v 1 C 4,6.2495813 5.2495812,5 6.8007812,5 H 33.984375 C 33.991226,4.6803858 34.001478,4.3591107 34,4.0429688 34,4.0429688 6.8,4 6.8007812,4 Z M 33.871094,14.441406 c -0.0034,0.337486 1.71e-4,0.666187 0,1 1.4e-4,0.01123 -1.46e-4,0.02197 0,0.0332 0.06588,5.086555 0.677798,9.604642 3.457031,12.208985 4.984628,4.670994 13.624728,3.310058 22.65625,3.386718 0.0044,0.214592 0.0065,0.580285 0.0078,1 0.0026,2.3e-5 0.0052,-2.2e-5 0.0078,0 -0.0116,-0.213094 -0.0068,-1.570816 -0.01563,-2 -9.031522,-0.07666 -17.671622,1.284276 -22.65625,-3.386718 C 34.542757,24.073502 33.934716,19.5417 33.871094,14.441406 Z"/>
</svg>

<svg xmlns="http://www.w3.org/2000/svg" width="64" height="64"><rect style="opacity:.2" width="56" height="56" x="4" y="5" rx="2.8" ry="2.8"/><path style="fill:#005bb7" d="M9.888 7.546 33.66 4H57.2C58.751 4 60 5.249 60 6.8v23.684L55.882 54.34c-.264 1.529-1.26 2.615-2.8 2.8L30.598 60H6.8A2.794 2.794 0 0 1 4 57.2V33.46l3.088-23.114c.206-1.538 1.265-2.58 2.8-2.8z"/><path style="opacity:.1;fill:#fff" d="M6.8 4C5.25 4 4 5.25 4 6.8v1C4 6.25 5.25 5 6.8 5h50.4C58.75 5 60 6.25 60 7.8v-1C60 5.25 58.75 4 57.2 4H6.8z"/><path style="fill:#0a84ff" d="M6.8 4A2.794 2.794 0 0 0 4 6.8v50.4c0 .148.022.29.044.432v-23.51c8.749.04 18.319-1.406 22.641 3.208C31.36 42.317 29.922 50.963 30 60h27.2c1.551 0 2.8-1.249 2.8-2.8V30.07c-9.037-.078-17.683 1.29-22.67-3.385-4.614-4.322-3.29-13.892-3.33-22.641h23.632A2.805 2.805 0 0 0 57.2 4zM60 30.07V6.8c0-.06-.015-.116-.02-.175-.054 3.498-.11 21.034.02 23.446zM30 60c-2.411-.13-19.877-.074-23.375-.02.059.005.115.02.175.02z"/><path style="opacity:.2" d="M1331.123 142.47V80.922l130.535-155.148-130.535-154.338v-57.243h351.774v136.27h-58.044l-1.17-77.869h-211.382l131.405 153.612L1412.3 84.069h212.226l-.518-77.869h57.028v136.27z" transform="matrix(.05117 0 0 .05137 -32.112 49.682)"/><path style="fill:#fff" d="M1331.123 142.47V80.922l130.535-155.148-130.535-154.338v-57.243h351.774v136.27h-58.044l-1.17-77.869h-211.382l131.405 153.612L1412.3 84.069h212.226l-.518-77.869h57.028v136.27z" transform="matrix(.05117 0 0 .05137 -32.112 48.682)"/><path style="opacity:.2" d="M13.914 33.938c-3.192.005-6.59.198-9.871.183v1c3.28.015 6.68-.178 9.871-.184 5.32-.008 10.068.508 12.77 3.391 2.764 2.95 3.382 7.195 3.447 12.033.003-5.248-.495-9.882-3.447-13.033-2.702-2.883-7.45-3.399-12.77-3.39z"/><path style="opacity:.2;fill:#fff" d="M6.8 4C5.25 4 4 5.25 4 6.8v1C4 6.25 5.25 5 6.8 5h27.184c.007-.32.017-.64.016-.957L6.8 4zm27.071 10.441c-.003.338 0 .667 0 1v.034c.066 5.086.678 9.604 3.457 12.209 4.985 4.67 13.625 3.31 22.656 3.386.005.215.007.58.008 1H60c-.012-.213-.007-1.57-.016-2-9.031-.076-17.671 1.285-22.656-3.386-2.785-2.61-3.393-7.142-3.457-12.243z"/></svg>
